!!!COM: Vivaldi, Antonio Lucio
!!!CDT: 1678/03/04-1741/08/28
!!!OPR: 12 sonatas for two violins and basso continuo
!!!OTL: Sonata in A major, op. @{OPS}, no. @{ONM} (@{SCT})
!!!OPS: 1
!!!ONM: 9
!!!OMV: 4. Corrente
!!!SCT: RV 75
!!!SCA: Antonio Vivaldi: Thematisch-systematisches Verzeichnis seiner Werke (Ryom-Verzeichnis)
!!!OMD: Allegro
!!!key: A
**kern	**dynam	**fb	**kern	**dynam	**kern	**dynam
*part3	*	*	*part2	*	*part1	*
*staff3	*	*	*staff2	*	*staff1	*
*ICstr&ICklav	*	*	*ICstr	*	*ICstr	*
*Icello&Icemba	*	*	*Ivioln	*	*Ivioln	*
*	*	*	*I#2	*	*I#1	*
*I"Violoncello\nContinuo	*	*	*I"Violin 2	*	*I"Violin 1	*
*I'bc	*	*	*I'v2	*	*I'v1	*
*>[A,A,B,B]	*>[A,A,B,B]	*>[A,A,B,B]	*>[A,A,B,B]	*>[A,A,B,B]	*>[A,A,B,B]	*>[A,A,B,B]
*>norep[A,B]	*>norep[A,B]	*>norep[A,B]	*>norep[A,B]	*>norep[A,B]	*>norep[A,B]	*>norep[A,B]
*>A	*>A	*>A	*>A	*>A	*>A	*>A
*clefF4	*	*	*clefG2	*	*clefG2	*
*k[f#c#g#]	*	*	*k[f#c#g#]	*	*k[f#c#g#]	*
*A:	*	*	*A:	*	*A:	*
*M3/4	*	*	*M3/4	*	*M3/4	*
*MM198	*	*	*MM198	*	*MM198	*
=1	=1	=1	=1	=1	=1	=1
4.A\	.	.	4r	.	4r	.
.	.	.	4r	.	4.a/	.
8c#y\	.	.	.	.	.	.
8B\L	.	.	[4a/	.	.	.
8A\J	.	.	.	.	8cc#y\	.
=2	=2	=2	=2	=2	=2	=2
4.e\	.	5 4	8a/L]	.	8b/L	.
.	.	X 3	8b/	.	8g#y/J	.
.	.	.	8g#y/	.	4.e/	.
8G#y\	.	.	8e/J	.	.	.
8F#y\L	.	.	[4b\	.	.	.
8E\J	.	.	.	.	8dd\	.
=3	=3	=3	=3	=3	=3	=3
4A\	.	9 5	8b/L]	.	8cc#y/L	.
.	.	.	8cc#y/	.	8a/J	.
4AA/	.	8 6	8a/	.	4.f#y/	.
.	.	.	8f#y/J	.	.	.
4A\	.	.	[4cc#y\	.	.	.
.	.	.	.	.	8ee\	.
=4	=4	=4	=4	=4	=4	=4
4B\	.	9 5	8cc#y\L]	.	8dd\L	.
.	.	.	8dd\	.	8b\J	.
4BB/	.	8 6	8b\	.	4.g#y/	.
.	.	.	8g#y\J	.	.	.
4B\	.	.	[4dd\	.	.	.
.	.	.	.	.	8ff#y\	.
=5	=5	=5	=5	=5	=5	=5
4c#y\	.	9 5	8dd\L]	.	8ee\L	.
.	.	.	8ee\	.	8cc#y\J	.
4C#y/	.	8 6	8cc#y\	.	4a/	.
.	.	.	8a\	.	.	.
8r	.	.	8cc#y\	.	[4aa\	.
8c#y\	.	.	8ee\J	.	.	.
=6	=6	=6	=6	=6	=6	=6
4.B\	.	7	8ff#y\L	.	8aa\L]	.
.	.	.	8dd\J	.	8ff#y\	.
.	.	.	4.b\	.	8dd\	.
8G#y\	.	.	.	.	8b\J	.
8E\L	.	.	.	.	[4gg#y\	.
8B\J	.	.	8dd\	.	.	.
=7	=7	=7	=7	=7	=7	=7
4.A\	.	7	8ee\L	.	8gg#y\L]	.
.	.	.	8cc#y\J	.	8ee\	.
.	.	.	4.a/	.	8cc#y\	.
8F#y\	.	.	.	.	8a\J	.
8D\L	.	.	.	.	[4ff#y\	.
8A\J	.	.	8cc#y\	.	.	.
!!LO:LB:g=original
=8	=8	=8	=8	=8	=8	=8
4.G#y\	.	7	4dd\	.	8ff#y\L]	.
.	.	6	.	.	8ee\J	.
.	.	.	2b\	.	4.ee\	.
8E\	.	.	.	.	.	.
8F#y\L	.	.	.	.	.	.
8G#y\J	.	.	.	.	8dd\	.
=9	=9	=9	=9	=9	=9	=9
4A\	.	.	2.e/	.	4.cc#y\	.
4AA/	.	.	.	.	.	.
.	.	.	.	.	8b\	.
4A\	.	.	.	.	8cc#y\L	.
.	.	.	.	.	8dd\J	.
=10	=10	=10	=10	=10	=10	=10
4G#y\	.	.	4b\	.	8g#y\L	.
.	.	.	.	.	8ee\	.
2F#y\	.	6#/	2dd#X\	.	8f#y\	.
.	.	.	.	.	8ff#y\	.
.	.	.	.	.	8gg#y\	.
.	.	.	.	.	8aa\J	.
=11	=11	=11	=11	=11	=11	=11
4E\	.	.	8ee\L	.	4gg#y\	.
.	.	.	8b\	.	.	.
4G#y\	.	6	(8ee\	.	4r	.
.	.	.	8ddn\)	.	.	.
4E\	.	7nr	(8dd\	.	4r	.
.	.	.	8cc#y\J)	.	.	.
=12	=12	=12	=12	=12	=12	=12
4A\	.	.	4cc#y\	.	8r	.
.	.	.	.	.	8ee\	.
4C#y/	.	6	4ee\	.	(8aa\L	.
.	.	.	.	.	8ggn\)	.
4AA/	.	7nr	4cc#y\	.	(8gg\	.
.	.	.	.	.	8ff#y\J)	.
=13	=13	=13	=13	=13	=13	=13
2D\	.	.	2a/	.	(8ff#y\L	.
.	.	.	.	.	8ee\	.
.	.	.	.	.	8dd\)	.
.	.	.	.	.	8ff#y\	.
4D#X\	.	6	4ff#y\	.	8bb\	.
.	.	.	.	.	8aa\J	.
=14	=14	=14	=14	=14	=14	=14
4.E\	.	.	4.b\	.	(8gg#y\L	.
.	.	.	.	.	8ff#y\	.
.	.	.	.	.	8ee\)	.
8E\	.	.	8ee\	.	8gg#y\	.
8F#y\L	.	.	8ee\L	.	8aa\	.
8G#y\J	.	.	8dd\J	.	8bb\J	.
=15	=15	=15	=15	=15	=15	=15
4A\	.	.	4cc#y\	.	8ee\L	.
.	.	.	.	.	8aa\J	.
4e\	.	.	4.b\	.	4.gg#y\	.
4E\	.	.	.	.	.	.
.	.	.	8a/	.	8aa\	.
=16	=16	=16	=16	=16	=16	=16
4.A\	.	.	4a/	.	4aa\	.
.	.	.	4r	.	4.aa\	.
8c#y\	.	.	.	.	.	.
8B\L	.	.	4r	.	.	.
8A\J	.	.	.	.	8ccc#y\	.
!!LO:LB:g=original
=17	=17	=17	=17	=17	=17	=17
4.G#y\	.	6	4r	.	8bb\L	.
.	.	.	.	.	8gg#y\J	.
.	.	.	4.ee\	.	[2ee\	.
8F#y\	.	.	.	.	.	.
8G#y\L	.	.	.	.	.	.
8E\J	.	.	8gg#y\	.	.	.
=18	=18	=18	=18	=18	=18	=18
2B\	.	5 4	8ff#y\L	.	8ee\L]	.
.	.	.	8dd#X\J	.	8ff#y\	.
.	.	X #	4.b\	.	8dd#X\	.
.	.	.	.	.	8b\J	.
4BB/	.	.	.	.	4ff#y\	.
.	.	.	8dd#X\	.	.	.
=19	=19	=19	=19	=19	=19	=19
2EE/	.	.	8ee\L	.	8gg#y\L	.
.	.	.	8gg#y\	.	8ee\J	.
.	.	.	8ee\	.	4.b\	.
.	.	.	8b\	.	.	.
4E\	.	.	8gg#y\	.	.	.
.	.	.	8ee\J	.	8gg#y\	.
=20	=20	=20	=20	=20	=20	=20
2B\	.	#	8dd#X\L	.	8ff#y\L	.
.	.	.	8ff#y\	.	8dd#X\J	.
.	.	.	8dd#X\	.	4.b\	.
.	.	.	8b\	.	.	.
4BB/	.	.	8ff#y\	.	.	.
.	.	.	8dd#X\J	.	8ff#y\	.
=21	=21	=21	=21	=21	=21	=21
2EE/	.	.	8ee\L	.	8gg#y\L	.
.	.	.	8gg#y\	.	8ee\J	.
.	.	.	8ee\	.	4.b\	.
.	.	.	8b\	.	.	.
4E\	.	.	8gg#y\	.	.	.
.	.	.	8ee\J	.	8gg#y\	.
=22	=22	=22	=22	=22	=22	=22
4.B\	.	#	2dd#X\	.	8ff#y\L	.
.	.	.	.	.	8dd#X\J	.
.	.	.	.	.	4.b\	.
8A\	.	.	.	.	.	.
4G#y\	.	.	4b\	.	.	.
.	.	.	.	.	8ee\	.
=23	=23	=23	=23	=23	=23	=23
4A\	.	5	4cc#y\	.	8a\L	.
.	.	6	.	.	8ff#y\	.
4B\	.	5 #	4dd#X\	.	8ff#y\	.
.	.	6	.	.	8gg#y\	.
4c#y\	.	5	4ee\	.	8gg#y\	.
.	.	6	.	.	8aa\J	.
=24	=24	=24	=24	=24	=24	=24
4.B\	.	7 #	4ff#y\	.	8b\L	.
.	.	.	.	.	8aa\	.
.	.	6	4dd#X\	.	8gg#y\	.
8A\	.	.	.	.	8ff#y\	.
4G#y\	.	6	[4ee\	.	8b\	.
.	.	.	.	.	8gg#y\J	.
!!LO:LB:g=original
=25	=25	=25	=25	=25	=25	=25
4A\	.	7 5	8.ee\L]	.	8a\L	.
.	.	.	.	.	8gg#y\J	.
.	.	.	16ff#y\Jk	.	.	.
4B\	.	#	4.dd#X\	.	4.ff#y\T	.
4BB/	.	.	.	.	.	.
.	.	.	8bb\	.	8ee\	.
=26	=26	=26	=26	=26	=26	=26
[2.EE/	.	.	[2.gg#y\	.	4ee\	.
.	.	.	.	.	4b\	.
.	.	.	.	.	4g#y/	.
=27	=27	=27	=27	=27	=27	=27
2.EE/]	.	.	2.gg#y\]	.	2.e/	.
=28:|!|:	=28:|!|:	=28:|!|:	=28:|!|:	=28:|!|:	=28:|!|:	=28:|!|:
*>B	*>B	*>B	*>B	*>B	*>B	*>B
4.E\	.	.	4r	.	4r	.
.	.	.	4r	.	4.ee\	.
8G#y\	.	.	.	.	.	.
8F#y\L	.	.	[4ee\	.	.	.
8E\J	.	.	.	.	8gg#y\	.
=29	=29	=29	=29	=29	=29	=29
2B\	.	5 4	4ee\]	.	8ff#y\L	.
.	.	.	.	.	8dd#X\J	.
.	.	X #	8dd#X\L	.	4.b\	.
.	.	.	8cc#y\J	.	.	.
4BB/	.	7	4dd#X\	.	.	.
.	.	.	.	.	8aa\	.
=30	=30	=30	=30	=30	=30	=30
4EE/	.	5	4ee\	.	8gg#y\L	.
.	.	.	.	.	8ee\J	.
8A\L	.	.	4r	.	4.cc#y\	.
8G#y\J	.	.	.	.	.	.
4F#y\	.	5	4aa\	.	.	.
.	.	.	.	.	8ff#y\	.
=31	=31	=31	=31	=31	=31	=31
2BB#X/	.	5	4.dd#X\	.	4.ff#y\	.
.	.	.	8ee\	.	8gg#y\	.
4C#y/	.	.	8cc#y\L	.	8ee\L	.
.	.	.	8b#X\J	.	8dd#X\J	.
=32	=32	=32	=32	=32	=32	=32
4FF#y/	.	7 5	8cc#y\L	.	8ee\L	.
.	.	.	8dd#X\J	.	8ff#y\J	.
2GG#y/	.	#	4.b#X\	.	4.dd#X\t	.
.	.	.	8cc#y\	.	8cc#y\	.
=33	=33	=33	=33	=33	=33	=33
2C#y/	.	n	4cc#y\	.	4cc#y\	.
.	.	#	4.gg#y\	.	4.ee#y\	.
4BB/	.	6 4#|	.	.	.	.
.	.	.	8gg#y\	.	8ee#y\	.
!!LO:PB:g=original
=34	=34	=34	=34	=34	=34	=34
4AA/	.	6	4cc#y\	.	[2.ff#y\	.
8A\L	.	.	4r	.	.	.
8G#y\	.	.	.	.	.	.
8A\	.	.	8r	.	.	.
8F#y\J	.	.	8aa\	.	.	.
=35	=35	=35	=35	=35	=35	=35
8B\L	.	5 #	8b\L	.	8ff#y\L]	.
8A\J	.	7 5	8ee\J	.	8ggn\	.
4B\	.	#	4.dd#X\	.	8ff#y\	.
.	.	.	.	.	8dd#X\	.
4BB/	.	.	.	.	8b\	.
.	.	.	8dd#y\	.	8aa\J	.
=36	=36	=36	=36	=36	=36	=36
4EE/	.	n	4ee\	.	8ggn\L	.
.	.	.	.	.	8ff#y\J	.
8Gn\L	.	6	4r	.	[2ee\	.
8F#y\	.	.	.	.	.	.
8Gn\	.	.	8r	.	.	.
8E\J	.	.	8ggn\	.	.	.
=37	=37	=37	=37	=37	=37	=37
8A\L	.	5	8a\L	.	8ee\L]	.
8Gn\J	.	7 5	8dd\J	.	8ff#y\	.
4A\	.	.	4.cc#y\	.	8ee\	.
.	.	.	.	.	8cc#y\	.
4AA/	.	.	.	.	8a\	.
.	.	.	8cc#y\	.	8ggn\J	.
=38	=38	=38	=38	=38	=38	=38
4DD/	.	.	4dd\	.	4ff#y\	.
2d\	.	6	4r	.	(8bb\L	.
.	.	.	.	.	8gg#X\)	.
.	.	5	4ff#y\	.	(8aa\	.
.	.	.	.	.	8ff#y\J)	.
=39	=39	=39	=39	=39	=39	=39
4.c#y\	.	#	2gg#X\	.	(8ee#X\L	.
.	.	.	.	.	8dd#X\J)	.
.	.	.	.	.	4cc#y\	.
8B\	.	.	.	.	.	.
4A\	.	6	4aa\	.	4ff#y\	.
=40	=40	=40	=40	=40	=40	=40
4B\	.	6 5	2.gg#y\	.	(4B/	.
4c#y\	.	#	.	.	4c#y/)	.
4C#y/	.	.	.	.	4ee#X\	.
=41	=41	=41	=41	=41	=41	=41
4FF#y/	.	.	8aa\L	.	4ff#y\	.
.	.	.	8gg#y\J	.	.	.
8A\L	.	6	[2ff#y\	.	4r	.
8Gn\	.	.	.	.	.	.
8A\	.	.	.	.	8r	.
8F#y\J	.	.	.	.	8aa\	.
!!LO:LB:g=original
=42	=42	=42	=42	=42	=42	=42
8B\L	.	5 #	8ff#y\L]	.	8b\L	.
8A\J	.	7 5	8ggn\	.	8ee\J	.
4B\	.	#	8ff#y\	.	4.dd#X\	.
.	.	.	8dd#X\	.	.	.
4BB/	.	.	8b\	.	.	.
.	.	.	8aa\J	.	8dd#y\	.
=43	=43	=43	=43	=43	=43	=43
4EE/	.	n	8ggn\L	.	4ee\	.
.	.	.	8ff#y\J	.	.	.
8Gn\L	.	6	[2ee\	.	4r	.
8F#y\	.	.	.	.	.	.
8Gn\	.	.	.	.	8r	.
8E\J	.	.	.	.	8ggn\	.
=44	=44	=44	=44	=44	=44	=44
8A\L	.	5	8ee\L]	.	8a\L	.
8Gn\J	.	7 5	8ff#y\	.	8dd\J	.
4A\	.	.	8ee\	.	4.cc#y\	.
.	.	.	8cc#y\	.	.	.
4AA/	.	.	8a\	.	.	.
.	.	.	8ggn\J	.	8cc#y\	.
=45	=45	=45	=45	=45	=45	=45
2.DD/	.	.	8ff#y\L	.	8dd\L	.
.	.	.	8aa\	.	8ff#y\	.
.	.	.	8ff#y\	.	8dd\	.
.	.	.	8ee\	.	8cc#y\	.
.	.	.	8dd\	.	8b\	.
.	.	.	8cc#y\J	.	8a\J	.
=46	=46	=46	=46	=46	=46	=46
2EE/	.	.	2b\	.	(8g#y/L	.
.	.	.	.	.	8f#y/	.
.	.	.	.	.	8e/)	.
.	.	.	.	.	8ff#y/	.
4GG#y/	.	6	4b\	.	8ee/	.
.	.	.	.	.	8dd/J	.
=47	=47	=47	=47	=47	=47	=47
4.AA/	.	.	4e/	.	4cc#y\	.
.	.	.	4r	.	4.a/	.
8C#y/	.	.	.	.	.	.
8BB/L	.	.	[4a/	.	.	.
8AA/J	.	.	.	.	8cc#y\	.
=48	=48	=48	=48	=48	=48	=48
4.E\	.	5 4	8a/L]	.	8b/L	.
.	.	.	8b/	.	8g#y/J	.
.	.	X 3	8g#y/	.	4.e/	.
8G#y\	.	.	8e/J	.	.	.
8F#y\L	.	.	[4b\	.	.	.
8E\J	.	.	.	.	8dd\	.
=49	=49	=49	=49	=49	=49	=49
4A\	.	9 5	8b/L]	.	8cc#y\L	.
.	.	.	8cc#y/	.	8a\J	.
4AA/	.	8 6	8a/	.	4.f#y/	.
.	.	.	8f#y/J	.	.	.
4A\	.	.	[4cc#y\	.	.	.
.	.	.	.	.	8ee\	.
=50	=50	=50	=50	=50	=50	=50
4B\	.	9 5	8cc#y\L]	.	8dd\L	.
.	.	.	8dd\	.	8b\J	.
4BB/	.	8 6	8b\	.	4.g#y/	.
.	.	.	8g#y\J	.	.	.
4G#y\	.	6 5	4dd\	.	.	.
.	.	.	.	.	8ff#y\	.
!!LO:LB:g=original
=51	=51	=51	=51	=51	=51	=51
4.A\	.	.	2cc#y\	.	8ee\L	.
.	.	.	.	.	8cc#y\J	.
.	.	.	.	.	4a/	.
8A\	.	.	.	.	.	.
8B\L	.	.	4e/	.	8r	.
8c#y\J	.	.	.	.	8a/	.
=52	=52	=52	=52	=52	=52	=52
4d\	.	5	4f#y/	.	8d/L	.
.	.	6	.	.	8b/	.
4e\	.	5	4g#y/	.	8b/	.
.	.	6	.	.	8cc#y/	.
4f#y\	.	5	4a/	.	8cc#y/	.
.	.	6	.	.	8dd/J	.
=53	=53	=53	=53	=53	=53	=53
4.e\	.	7	4b\	.	8e/L	.
.	.	.	.	.	8dd/	.
.	.	6	4g#y/	.	8cc#y/	.
8d\	.	.	.	.	8b/	.
4c#y\	.	6	[4a/	.	8e/	.
.	.	.	.	.	8cc#y/J	.
=54	=54	=54	=54	=54	=54	=54
4d\	.	7 5	8.a/L]	.	8d/L	.
.	.	.	.	.	8cc#y/J	.
.	.	.	16b/Jk	.	.	.
4e\	.	.	4.g#y/	.	4.b\T	.
4E\	.	.	.	.	.	.
.	.	.	8ee\	.	8a/	.
=55	=55	=55	=55	=55	=55	=55
4.A\	.	.	2cc#y\	.	2a/	.
8c#y\	p	.	.	.	.	.
8B\L	.	.	4e/	p	8r	.
8c#y\J	.	.	.	.	8a/	p
=56	=56	=56	=56	=56	=56	=56
4d\	.	5	4f#y/	.	8d/L	.
.	.	6	.	.	8b/	.
4e\	.	5	4g#y/	.	8b/	.
.	.	6	.	.	8cc#y/	.
4f#y\	.	5	4a/	.	8cc#y/	.
.	.	6	.	.	8dd/J	.
=57	=57	=57	=57	=57	=57	=57
4.e\	.	7	4b\	.	8e/L	.
.	.	.	.	.	8dd/	.
.	.	6	4g#y/	.	8cc#y/	.
8d\	.	.	.	.	8b/	.
4c#y\	.	6	[4a/	.	8e/	.
.	.	.	.	.	8cc#y/J	.
=58	=58	=58	=58	=58	=58	=58
4d\	.	6 5	8.a/L]	.	8d/L	.
.	.	.	.	.	8cc#y/J	.
.	.	.	16b/Jk	.	.	.
4e\	.	.	4.g#y/	.	4.b\T	.
4E\	.	.	.	.	.	.
.	.	.	8ee\	.	8a/	.
=59	=59	=59	=59	=59	=59	=59
[2.AA/	.	.	[2.cc#y\	.	4a/	f
.	.	.	.	.	4e/	.
.	.	.	.	.	4c#y/	.
=60	=60	=60	=60	=60	=60	=60
2.AA/]	.	.	2.cc#y\]	.	2.A/	.
=:|!	=:|!	=:|!	=:|!	=:|!	=:|!	=:|!
*-	*-	*-	*-	*-	*-	*-
!!!SMS: RV 75 / Estienne Roger (No. 363), Amsterdam [facs.]
!!!ENC: Fran Bennion   rev. 05/14/21 E Correia
!!!END: 2004/10/27
!!!ONB: Converted from MuseData with musedata2hum on Sat May 11 12:01:57 2024
!!!YEM: (C) 2004, 2019 Center for Computer Assisted Research in the Humanities
!!!system-decoration: [(s1,s2,s3)]
!!!URL-info: https://wiki.ccarh.org/wiki/MuseData:_Antonio_Vivaldi#Op._1:_Suonate_da_camera_a_tr.C3.A8.2C_due_violini_e_violone_o_cembalo Information about Vivaldi Op. 1 on the CCARH wiki
!!!URL-pdf: https://pdf.musedata.org/vivaldi-op01-no09.pdf#page=5 MuseData edition
!!!URL-pdf: https://s9.imslp.org/files/imglnks/usimg/1/18/IMSLP280399-PMLP10351-Vivaldi_Sonatas_Op_1_-_Violino_Primo.pdf#page=15 Violino primo part, Amsterdam: Estienne Roger, n.d.(ca.1723). Plate 363.
!!!URL-pdf: https://s9.imslp.org/files/imglnks/usimg/d/d5/IMSLP280400-PMLP10351-Vivaldi_Sonatas_Op_1_-_Violino_Secondo.pdf#page=12 Violino secondo part, Amsterdam: Estienne Roger, n.d.(ca.1723). Plate 363.
!!!URL-pdf: https://s9.imslp.org/files/imglnks/usimg/8/89/IMSLP280401-PMLP10351-Vivaldi_Sonatas_Op_1_-_Organo_e_Violoncello.pdf#page=13 Organo e Violoncello parts, Amsterdam: Estienne Roger, n.d.(ca.1723). Plate 363.
!!!URL-youtube: https://www.youtube.com/watch?v=P5HHPe_W6Uo&t=2903s L'Arte dell'Arco
!!!title: @{OTL}, mov. @{OMV}
!!!filter-vcross: vcross
!!!EEV: 2024/05/11
!!!source-file: https://bitbucket.org/musedata/vivaldi/src/master/roger/op1/no09/stage2/04/01
!!!source-file: https://bitbucket.org/musedata/vivaldi/src/master/roger/op1/no09/stage2/04/02
!!!source-file: https://bitbucket.org/musedata/vivaldi/src/master/roger/op1/no09/stage2/04/03
!!!source-file: https://bitbucket.org/musedata/vivaldi/src/master/roger/op1/no09/stage2/04/04
